X:1
T:Den norske Sjømand
T:Den norske Sjømand 
T:F. A. Reissiger
T:Bj. Bjørnson
C:F. A. Reissiger
Z:Bj. Bjørnson
%%score [ 1 2 3 4 ]
L:1/8
Q:1/4=60
M:2/4
K:A
V:1 treble-8 nm="Tenor"
V:2 treble-8 nm="Tenor"
V:3 bass nm="Baryton"
V:4 bass nm="Bass"
V:1
"^Allegretto comodo"!mf! E | A A A A | A/ G/!<(! A/ B/ c!<)! A | e3/2 f/ e2- | e!mf! e f c | %5
w: Den|nor- ske sjø- mand|er et gen- nem- bar- ket|fol- ke- færd;|_ hvor far- tøj|
 !>!d3/2 e/ d2- | d d e B | !>!c3/2 d/ c2- | c!<(! ^d e f!<)! | !>!g2 !>!f2 | !>!e2!f! f2 | %11
w: fly- de kan,|_ der er han|før- ste mand,|_ hvor far- tøj|fly- de|kan, der|
 B e (e/^d/) (c/d/) | e2!mf! z!<(! e!<)! |!>(! f3 c!>)! | !>!d3/2 e/ d B | e f e B | %16
w: er han før- * ste _|mand. På|togt og|hjem- me her, ved|sund og skær og|
 !>!c3/2 d/ c A | B!<(! c d e!<)! | f2 f2 | e!>(! B e3/2 d/!>)! | c2 z!f! A | B!<(! c d e!<)! | %22
w: fis- ke- vær han|har sin Gud i|sind og|sæt- ter li- vet|ind, han|har sin Gud i|
 !>!f[Q:1/4=60]"^ritenuto" !>!f !>!g !>!a | !>!e3 (!>!d/B/) | !>!A2 z |] %25
w: sind og sæt- ter|li- vet _|ind.|
V:2
!mf! E | A A A A | A/ G/!<(! A/ B/ c!<)! A | c3/2 d/ c2- | c!mf! c c F | !>!F3/2 B/ B2- | B B B E | %7
w: Den|nor- ske sjø- mand|er et gen- nem- bar- ket|fol- ke- færd;|_ hvor far- tøj|fly- de kan,|_ der er han|
 !>!E3/2 A/ A2- | A!<(! B B ^d!<)! | !>!e2 !>!^d2 | !>!c2!f! c2 | B B A A | G2!mf! z!<(! B!<)! | %13
w: før- ste mand,|_ hvor far- tøj|fly- de|kan, der|er han før- ste|mand. På|
!>(! c3 ^A!>)! | !>!B3/2 ^A/ B B | B G =A G | !>!A3/2 B/ A A | A!<(! A B c!<)! | d2 d2 | %19
w: togt og|hjem- me her, ved|sund og skær og|fis- ke- vær han|har sin Gud i|sind og|
 B!>(! B A3/2 B/!>)! | A2 z!f! A | A!<(! A B c!<)! | !>!d !>!A !>!B !>!^B | !>!c3 (!>!B/G/) | %24
w: sæt- ter li- vet|ind, han|har sin Gud i|sind og sæt- ter|li- vet _|
 !>!A2 z |] %25
w: ind.|
V:3
!mf! E, | A, A, A, A, | A,/ G,/!<(! A,/ B,/ C!<)! A, | A,3/2 A,/ A,2- | A,!mf! B, ^A, A, | %5
w: Den|nor- ske sjø- mand|er et gen- nem- bar- ket|fol- ke- færd;|_ hvor far- tøj|
 !>!B,3/2 F,/ F,2- | F, =F, E, G, | !>!A,3/2 E,/ E,2- | E,!<(! A, G, B,!<)! | !>!B,2 !>!A,2 | %10
w: fly- de kan,|_ der er han|før- ste mand,|_ hvor far- tøj|fly- de|
 !>!G,2!f! A,2 | G, G, F, B, | B,2!mf! z!<(! G,!<)! |!>(! ^A,3 F,!>)! | !>!F,3/2 F,/ F, =F, | %15
w: kan, der|er han før- ste|mand. På|togt og|hjem- me her, ved|
 E, E, E, E, | !>!E,3/2 E,/ E, A, | A,!<(! A, A, A,!<)! | A,2 B,2 | A,!>(! G, F,3/2 G,/!>)! | %20
w: sund og skær og|fis- ke- vær han|har sin Gud i|sind og|sæt- ter li- vet|
 A,!f! E, A,2- | A,!<(! A, A, A,!<)! | !>!A, !>!F, !>!^E, !>!F, | !>!A,3 (!>!E,/D,/) | !>!C,2 z |] %25
w: ind, han har|_ sin Gud i|sind og sæt- ter|li- vet _|ind.|
V:4
!mf! E, | A, A, A, A, | A,/ G,/!<(! A,/ B,/ C!<)! A, | A,3/2 A,/ A,2- | A,!mf! =G, F, F, | %5
w: Den|nor- ske sjø- mand|er et gen- nem- bar- ket|fol- ke- færd;|_ hvor far- tøj|
 !>!B,,3/2 B,,/ B,,2- | B,, A,, G,, E, | !>!A,,3/2 A,,/ A,,2- | A,,!<(! A, G, F,!<)! | %9
w: fly- de kan,|_ der er han|før- ste mand,|_ hvor far- tøj|
 !>!E,2 !>!B,,2 | !>!C,2!f! A,,2 | B,, B,, B,, B,, | E,2!mf! z!<(! E,!<)! |!>(! E,2 E,2!>)! | %14
w: fly- de|kan, der|er han før- ste|mand. På|togt og|
 !>!D,3/2 C,/ B,, A,, | G,, D, C, E, | !>!A,,3/2 A,,/ A,, A, | G,!<(! =G, F, E,!<)! | D,2 B,,2 | %19
w: hjem- me her, ved|sund og skær og|fis- ke- vær han|har sin Gud i|sind og|
 E,!>(! E, E,3/2 E,/!>)! | A,,2 z!f! A, | G,!<(! =G, F, E,!<)! | !>!D, !>!D, !>!D, !>!^D, | %23
w: sæt- ter li- vet|ind, han|har sin Gud i|sind og sæt- ter|
 !>!E,3 !>!E, | !>!A,,2 z |] %25
w: li- vet|ind.|

